X:3
T:Jolly Clamdiggers, The
R:reel
E:7.5
M:C|
Q:1/4=350
K:D
d2 FB AFEF|D2dc BABc|dF~F2 dFAF|GBAG FDFA|\
d2 FB AFEF|D2dc BABc|dF~F2 dFAF|GBAF D2 z2||
d2 fd egfd|A2 (3cBA eAcA|defg ~a3 f|afeg fddc|\
d2 fd egfd|A2 (3cBA eAcA|defg ~a3 f|afeg fd ~d2||
